icon/pk/save.svg

<svg viewBox="0 0 48 48" fill="none" xmlns="http://www.w3.org/2000/svg" height="1em" width="1em">
  <path d="M6 9C6 7.34315 7.34315 6 9 6H34.2814L42 13.2065V39C42 40.6569 40.6569 42 39 42H9C7.34315 42 6 40.6569 6 39V9Z" fill="#2F88FF" stroke="black" stroke-width="4" stroke-linejoin="round"/>
  <path fill-rule="evenodd" clip-rule="evenodd" d="M24.0083 6L24 13.3846C24 13.7245 23.5523 14 23 14H15C14.4477 14 14 13.7245 14 13.3846L14 6" fill="#43CCF8"/>
  <path d="M24.0083 6L24 13.3846C24 13.7245 23.5523 14 23 14H15C14.4477 14 14 13.7245 14 13.3846L14 6H24.0083Z" stroke="white" stroke-width="4" stroke-linejoin="round"/>
  <path d="M9 6H34.2814" stroke="black" stroke-width="4" stroke-linecap="round" stroke-linejoin="round"/>
  <path d="M14 26H34" stroke="white" stroke-width="4" stroke-linecap="round" stroke-linejoin="round"/>
  <path d="M14 34H24.0083" stroke="white" stroke-width="4" stroke-linecap="round" stroke-linejoin="round"/>
</svg>

<svg width="48" height="48" fill="none" xmlns="http://www.w3.org/2000/svg"><path d="M6 9a3 3 0 0 1 3-3h25.281L42 13.207V39a3 3 0 0 1-3 3H9a3 3 0 0 1-3-3V9Z" fill="#2F88FF" stroke="#000" stroke-width="4" stroke-linejoin="round"/><path fill-rule="evenodd" clip-rule="evenodd" d="M24.008 6 24 13.385c0 .34-.448.615-1 .615h-8c-.552 0-1-.275-1-.615V6" fill="#43CCF8"/><path d="M24.008 6 24 13.385c0 .34-.448.615-1 .615h-8c-.552 0-1-.275-1-.615V6h10.008Z" stroke="#fff" stroke-width="4" stroke-linejoin="round"/><path d="M9 6h25.281" stroke="#000" stroke-width="4" stroke-linecap="round" stroke-linejoin="round"/><path d="M14 26h20M14 34h10.008" stroke="#fff" stroke-width="4" stroke-linecap="round" stroke-linejoin="round"/></svg>
